X:20
T: Die wiedergefundene Schwester (Suedeli - Ballade)
N: Q0072S
O: Mitteleuropa, Deutschland
N: Nach Methfessels (komponierter) Melodie zu "Vier Worte nenn ich
N: euch ..." . Zweistimmig notiert, Oberstimme kodiert.
R: Ballade, Entfuehrung, Adelige als Dienstmagd, Rueckkehr
M: 4/4
L: 1/8
K: E
EG | B2GBe2BG | BAFDE2z
E | c2B2d2e2 | d2c2B2z
B | d2cde2dc | BcBAG2
E2 | c2B2A2G2 | FEFGE2

@@@ Tune index: 1075
